config/_h5ai/public/images/ui/preview-close.svg

<svg xmlns:svg="http://www.w3.org/2000/svg" xmlns="http://www.w3.org/2000/svg" width="24" height="24" viewBox="0 0 24 24" version="1.1">
  <path d="M19 6.4l-1.4-1.4-5.6 5.6-5.6-5.6-1.4 1.4 5.6 5.6-5.6 5.6 1.4 1.4 5.6-5.6 5.6 5.6 1.4-1.4-5.6-5.6z" fill="#fff"/>
</svg>

<svg width="24" height="24" viewBox="0 0 24 24" fill="none" xmlns="http://www.w3.org/2000/svg">
<path d="M19 6.4L17.6 5L12 10.6L6.4 5L5 6.4L10.6 12L5 17.6L6.4 19L12 13.4L17.6 19L19 17.6L13.4 12L19 6.4Z" fill="#DCE0E8"/>
</svg>
